X: 03042
T: JAY'S JIG
C: Bob McQuillen 19 March 78
B: Bob's Note Book 03 #42
R: jig
%D:1978
Z: 2020 John Chambers <jc:trillian.mit.edu>
M: 6/8
L: 1/8
K: D
A \
| Add dfe | dcB A2a | aba afd | gab e2A |\
| Add dfe | dcB A2a | aba agf | e3  d2 :|
|: a \
| aff fga | aff f2a | aba agf | fed efg |\
| aff fga | aff fga | bag fed | edc d2 :|
%%begintext align
%% I promissed one of my school boy
%% friends I'd write him a tune, so
%% this one is for Jay Lebel,
%% with very Best Wishes always.
%%endtext

%%sep 1 1 500

%%sep 1 1 500

